app/images/icons/master-card.svg

<svg width="25" height="16" viewBox="0 0 25 16" fill="none" xmlns="http://www.w3.org/2000/svg">
<path d="M6.57916 6.93848C6.11668 6.93848 5.76218 7.0871 5.76218 7.0871L5.66426 7.66847C5.66426 7.66847 5.9567 7.54957 6.3995 7.54957C6.65085 7.54957 6.83444 7.57755 6.83444 7.78169C6.83444 7.90583 6.81214 7.95173 6.81214 7.95173C6.81214 7.95173 6.61413 7.93555 6.52233 7.93555C5.93877 7.93555 5.32593 8.18384 5.32593 8.93525C5.32593 9.52712 5.72764 9.66219 5.97724 9.66219C6.45327 9.66219 6.65871 9.35358 6.66921 9.3527L6.64691 9.61061H7.24096L7.50586 7.75284C7.50542 6.96383 6.81783 6.93848 6.57916 6.93848ZM6.24607 9.09699C6.03669 9.09699 5.98205 8.93744 5.98205 8.84214C5.98205 8.65768 6.08215 8.43562 6.57654 8.43562C6.69194 8.43606 6.70417 8.44786 6.72341 8.45136C6.73652 8.56501 6.65259 9.09699 6.24607 9.09699Z" fill="#ECEBEB"/>
<path d="M8.72447 7.56145C8.81933 7.56145 9.1852 7.59161 9.1852 7.59161L9.27044 6.99625C9.27044 6.99625 9.03352 6.94336 8.64798 6.94336C8.14878 6.94336 7.64259 7.14269 7.64259 7.82416C7.64259 8.59699 8.48711 8.51831 8.48711 8.84441C8.48711 9.06122 8.25107 9.07914 8.06922 9.07914C7.75406 9.07914 7.4708 8.97161 7.46993 8.97598L7.37988 9.56653C7.39606 9.5709 7.57091 9.64871 8.13698 9.64871C8.28866 9.64871 9.15722 9.68805 9.15722 8.79151C9.15722 7.95311 8.35336 8.11878 8.35336 7.78176C8.35336 7.61391 8.48405 7.56145 8.72447 7.56145Z" fill="#ECEBEB"/>
<path d="M10.1438 7.63749H10.5009L10.587 7.00279H10.2504L10.319 6.60938H9.64456C9.62969 6.6238 9.24634 8.82821 9.24634 9.09573C9.24634 9.49395 9.46971 9.67054 9.784 9.66748C10.0301 9.66574 10.222 9.59754 10.2897 9.57875L10.3741 9.00524C10.3278 9.00524 10.26 9.02535 10.2001 9.02535C9.9654 9.02535 9.93961 8.8999 9.95448 8.80766L10.1438 7.63749Z" fill="#ECEBEB"/>
<path d="M12.9708 3.95508H11.767C11.6052 4.17364 11.4531 4.40619 11.3154 4.63349H13.463C13.314 4.39657 13.1492 4.17014 12.9708 3.95508Z" fill="#ECEBEB"/>
<path d="M22.3636 11.5862C22.3504 11.5665 22.3395 11.5516 22.3308 11.5425C22.326 11.5381 22.3198 11.5333 22.312 11.5311C22.3308 11.5298 22.3465 11.5228 22.3579 11.511C22.3688 11.4992 22.3749 11.4852 22.3749 11.469C22.3749 11.4576 22.3714 11.4467 22.3649 11.4367C22.3583 11.4266 22.3487 11.4192 22.3369 11.4152C22.326 11.4109 22.3072 11.4087 22.2814 11.4087H22.2053V11.6294H22.2412V11.5359H22.2617C22.274 11.5359 22.284 11.5385 22.2897 11.5438C22.2989 11.5512 22.312 11.5682 22.3273 11.5949L22.3465 11.6299H22.3907L22.3636 11.5862ZM22.284 11.5066H22.2403V11.4402H22.2814C22.2984 11.4402 22.3098 11.4415 22.3164 11.4441C22.3233 11.4467 22.3277 11.4507 22.3317 11.4555C22.3351 11.4607 22.3369 11.4664 22.3369 11.4725C22.3369 11.4826 22.3334 11.4913 22.326 11.4974C22.3185 11.5031 22.3041 11.5066 22.284 11.5066Z" fill="#ECEBEB"/>
<path d="M13.8279 5.29932H10.9398C10.7553 5.64858 10.6329 5.9126 10.5984 5.97817H14.1015C14.0224 5.74474 13.9314 5.51875 13.8279 5.29932Z" fill="#ECEBEB"/>
<path d="M4.49933 6.40137L3.83447 8.37279L3.79993 6.40137H2.81553L2.27612 9.61378H2.927L3.33746 7.19212L3.39778 9.61378H3.86244L4.72926 7.19212L4.34502 9.61378H5.03568L5.56766 6.40137H4.49933Z" fill="#ECEBEB"/>
<path d="M17.5151 6.93848C17.0517 6.93848 16.6977 7.0871 16.6977 7.0871L16.5993 7.66847C16.5993 7.66847 16.8922 7.54957 17.3346 7.54957C17.5859 7.54957 17.7699 7.57755 17.7699 7.78169C17.7699 7.90583 17.7468 7.95173 17.7468 7.95173C17.7468 7.95173 17.5492 7.93555 17.4565 7.93555C16.8734 7.93555 16.261 8.18384 16.261 8.93525C16.261 9.52712 16.6631 9.66219 16.9123 9.66219C17.3879 9.66219 17.5933 9.35358 17.6043 9.3527L17.582 9.61061H18.1756L18.4405 7.75284C18.4418 6.96383 17.7538 6.93848 17.5151 6.93848ZM17.1829 9.09699C16.9731 9.09699 16.9189 8.93744 16.9189 8.84214C16.9189 8.65768 17.019 8.43562 17.5133 8.43562C17.6283 8.43606 17.6405 8.44786 17.6602 8.45136C17.6729 8.56501 17.5885 9.09699 17.1829 9.09699Z" fill="#ECEBEB"/>
<path d="M22.385 9.31757C22.3671 9.28435 22.3408 9.25899 22.308 9.24151C22.2757 9.22359 22.2425 9.21484 22.2075 9.21484C22.1738 9.21528 22.1402 9.22402 22.107 9.24151C22.0742 9.25899 22.0488 9.28435 22.0305 9.31757C22.0121 9.35035 22.0029 9.38445 22.0029 9.41985C22.0029 9.45526 22.0121 9.48892 22.0305 9.52127C22.0484 9.55361 22.0737 9.5794 22.1061 9.59776C22.1389 9.61569 22.1725 9.62487 22.2075 9.62487C22.2433 9.62487 22.2774 9.61569 22.3094 9.59776C22.3417 9.5794 22.3671 9.55361 22.385 9.52127C22.4038 9.48892 22.4121 9.45526 22.4121 9.41985C22.4121 9.38357 22.4033 9.34948 22.385 9.31757ZM22.3566 9.50422C22.3417 9.53132 22.3207 9.55187 22.2932 9.56804C22.2661 9.5829 22.2381 9.59077 22.2088 9.59077C22.1791 9.59077 22.1507 9.5829 22.124 9.56804C22.0965 9.55274 22.0759 9.53176 22.0602 9.50422C22.0445 9.47668 22.0375 9.44871 22.0375 9.41942C22.0375 9.39013 22.0449 9.36172 22.0611 9.33418C22.0764 9.30708 22.0969 9.2861 22.1249 9.2708C22.1529 9.2555 22.1804 9.24894 22.2088 9.24894C22.2372 9.24894 22.2652 9.25593 22.2919 9.2708C22.3198 9.2861 22.3404 9.30664 22.3557 9.33418C22.371 9.36172 22.3793 9.39013 22.3793 9.41942C22.3793 9.44871 22.3719 9.47712 22.3566 9.50422Z" fill="#ECEBEB"/>
<path d="M22.2771 9.48948C22.2644 9.46894 22.253 9.45451 22.2447 9.44577C22.2395 9.44096 22.2338 9.43703 22.2259 9.43441C22.2447 9.43309 22.26 9.4261 22.2714 9.4143C22.2823 9.40293 22.2889 9.38807 22.2889 9.37233C22.2889 9.36141 22.2854 9.35004 22.2784 9.33999C22.2714 9.33037 22.2622 9.32294 22.2513 9.31857C22.2404 9.3142 22.2211 9.31201 22.1953 9.31201H22.1184V9.53232H22.1543V9.43878H22.1748C22.1875 9.43878 22.1975 9.4414 22.2036 9.44621C22.2128 9.45408 22.2251 9.47069 22.2412 9.49823L22.26 9.53276H22.3042L22.2771 9.48948ZM22.1984 9.40862H22.1551V9.34174H22.1953C22.2128 9.34174 22.2242 9.34305 22.2312 9.34523C22.2369 9.34829 22.2421 9.35135 22.2456 9.35704C22.2495 9.36272 22.2513 9.36753 22.2513 9.37496C22.2513 9.38457 22.2474 9.39288 22.2408 9.399C22.2325 9.40643 22.2189 9.40862 22.1984 9.40862Z" fill="#ECEBEB"/>
<path d="M19.8073 6.97021C19.5052 6.97021 19.281 7.38242 19.281 7.38242L19.3413 7.00344H18.7127L18.2917 9.6183H18.9842C19.1813 8.50102 19.2171 7.59486 19.6853 7.76053C19.7679 7.32866 19.8475 7.16124 19.9371 6.97896C19.9371 6.97939 19.8951 6.97021 19.8073 6.97021Z" fill="#ECEBEB"/>
<path d="M21.547 6.40463L21.4015 7.30729C21.4015 7.30729 21.1479 6.95628 20.7502 6.95628C20.1316 6.95672 19.6167 7.70201 19.6167 8.5579C19.6167 9.11086 19.8917 9.65245 20.4529 9.65245C20.8573 9.65245 21.0811 9.37051 21.0811 9.37051L21.0518 9.61136H21.7079L22.2237 6.40332L21.547 6.40463ZM20.6916 8.99677C20.4485 8.99677 20.3349 8.79307 20.3349 8.4731C20.3349 7.94986 20.5696 7.60497 20.8664 7.60497C21.1086 7.60541 21.2332 7.77195 21.2332 8.16449C21.2332 8.52074 21.057 8.99677 20.6916 8.99677Z" fill="#ECEBEB"/>
<path d="M24.0531 0H0.635576C0.28413 0 0 0.284567 0 0.635576V15.3644C0 15.7154 0.28413 16 0.635576 16H24.0531C24.4046 16 24.6887 15.7154 24.6887 15.3644V0.635576C24.6887 0.284567 24.4046 0 24.0531 0ZM22.472 11.6183C22.4537 11.6515 22.4288 11.6769 22.3964 11.6948C22.3641 11.7127 22.33 11.7219 22.295 11.7219C22.2592 11.7219 22.2251 11.7127 22.1927 11.6948C22.1608 11.6769 22.1355 11.6515 22.1167 11.6183C22.0987 11.5864 22.0896 11.5523 22.0896 11.5169C22.0896 11.4815 22.0987 11.4478 22.1171 11.4146C22.135 11.3814 22.1612 11.3564 22.1936 11.3385C22.2264 11.3215 22.2596 11.3123 22.2946 11.3123C22.3291 11.3123 22.3623 11.3215 22.3947 11.3385C22.4274 11.3564 22.4532 11.3814 22.4712 11.4146C22.4895 11.4478 22.4983 11.4819 22.4983 11.5169C22.4983 11.5518 22.4904 11.5872 22.472 11.6183ZM22.9301 8.00022C22.931 11.4994 20.0958 14.3372 16.5962 14.3381C14.9596 14.3385 13.4673 13.7182 12.343 12.6993C11.2188 13.7165 9.72948 14.3363 8.09551 14.3363C4.59809 14.3363 1.75942 11.4981 1.75942 8.00022C1.75942 4.51635 4.5758 1.68642 8.05486 1.66369C8.06841 1.66369 8.08196 1.66369 8.09551 1.66369C9.72948 1.66369 11.2192 2.28353 12.3435 3.30071C13.4673 2.28309 14.9579 1.66281 16.5932 1.66238C20.0928 1.66107 22.9301 4.49755 22.931 7.99716C22.9301 7.99803 22.9301 7.99847 22.9301 8.00022Z" fill="#ECEBEB"/>
<path d="M11.6943 12.0063C11.895 12.252 12.1074 12.4863 12.3422 12.6987C12.3474 12.6939 12.3531 12.6896 12.3583 12.6852C12.3583 12.6852 12.3579 12.6852 12.3579 12.6848H12.3592C12.59 12.4745 12.8055 12.2481 13.0026 12.0063H11.6943V12.0063Z" fill="#ECEBEB"/>
<path d="M12.5573 8.52838C12.5573 8.52838 12.646 8.09125 12.646 7.91334C12.646 7.46879 12.4248 6.92676 11.6843 6.92676C11.0059 6.92719 10.5037 7.65806 10.5037 8.48423C10.5037 9.43759 11.1327 9.66402 11.669 9.66402C12.1639 9.66402 12.3815 9.55299 12.3815 9.55299L12.5004 8.90255C12.5004 8.90255 12.1241 9.06866 11.784 9.06866C11.0597 9.06866 11.1864 8.52838 11.1864 8.52838H12.5573V8.52838ZM11.6865 7.53217C12.0673 7.53217 11.9969 7.96012 11.9969 7.99421H11.2481C11.2481 7.95006 11.3189 7.53217 11.6865 7.53217Z" fill="#ECEBEB"/>
<path d="M15.7212 7.01626C16.0643 7.01626 16.3402 7.20903 16.3402 7.20903L16.4503 6.49433C16.4503 6.49433 16.042 6.3291 15.6906 6.3291C14.9121 6.3291 14.1545 7.00489 14.1545 8.27386C14.1545 9.11532 14.5633 9.6709 15.3684 9.6709C15.5957 9.6709 15.9585 9.57867 15.9585 9.57867L16.0792 8.84256C16.0792 8.84256 15.7487 9.00823 15.5214 9.00823C15.0423 9.00779 14.8504 8.64235 14.8504 8.25069C14.8504 7.45382 15.2622 7.01626 15.7212 7.01626Z" fill="#ECEBEB"/>
<path d="M10.8484 10.6753C10.9581 10.9109 11.0857 11.1351 11.2226 11.3537H13.4707C13.6071 11.136 13.7299 10.9096 13.8396 10.6753H10.8484Z" fill="#ECEBEB"/>
<path d="M14.1421 6.97125C13.8401 6.97125 13.6163 7.38346 13.6163 7.38346L13.677 7.00447H13.0489L12.6279 9.61934H13.3203C13.5166 8.50249 13.5533 7.5959 14.0215 7.76157C14.1037 7.32926 14.1828 7.16184 14.2724 6.97912C14.2724 6.97912 14.2304 6.97038 14.1421 6.97125Z" fill="#ECEBEB"/>
</svg>

<svg width="25" height="16" fill="none" xmlns="http://www.w3.org/2000/svg"><path d="M6.58 6.94c-.46 0-.82.15-.82.15l-.1.58s.3-.12.74-.12c.25 0 .43.03.43.23 0 .13-.02.17-.02.17l-.29-.01c-.58 0-1.2.24-1.2 1 0 .59.4.72.66.72.47 0 .68-.3.69-.3l-.02.25h.6l.26-1.86c0-.79-.7-.81-.93-.81ZM6.25 9.1c-.21 0-.27-.16-.27-.26 0-.18.1-.4.6-.4l.14.01c.02.11-.07.65-.47.65Zm2.47-1.54.46.03.09-.6s-.24-.05-.62-.05c-.5 0-1 .2-1 .88 0 .78.84.7.84 1.02 0 .22-.24.24-.42.24-.32 0-.6-.1-.6-.1l-.1.59c.03 0 .2.08.77.08.15 0 1.02.04 1.02-.86 0-.84-.8-.67-.8-1 0-.18.12-.23.36-.23Zm1.42.08h.36L10.6 7h-.34l.07-.4h-.67c-.02.02-.4 2.23-.4 2.5 0 .4.22.57.53.57.25 0 .44-.07.51-.1l.08-.56-.17.02c-.23 0-.26-.13-.25-.22l.2-1.17Zm2.83-3.68h-1.2a8.9 8.9 0 0 0-.45.67h2.14a6.4 6.4 0 0 0-.49-.67Zm9.4 7.63a.35.35 0 0 0-.04-.05.05.05 0 0 0-.02 0 .07.07 0 0 0 .05-.03.06.06 0 0 0 0-.07.05.05 0 0 0-.02-.02.17.17 0 0 0-.06-.01h-.07v.22h.03v-.1h.02l.03.01.04.05.02.04h.04l-.03-.04Zm-.09-.08h-.04v-.07h.08a.04.04 0 0 1 .01.01.03.03 0 0 1 0 .02.03.03 0 0 1 0 .03h-.05ZM13.83 5.3h-2.89l-.34.68h3.5a6.5 6.5 0 0 0-.27-.68ZM4.5 6.4l-.67 1.97L3.8 6.4h-.98l-.54 3.21h.65l.4-2.42.07 2.42h.46l.87-2.42-.39 2.42h.7l.53-3.21H4.5Zm13.02.54c-.47 0-.82.15-.82.15l-.1.58s.3-.12.73-.12c.26 0 .44.03.44.23 0 .13-.02.17-.02.17l-.3-.01c-.58 0-1.19.24-1.19 1 0 .59.4.72.65.72.48 0 .68-.3.7-.3l-.03.25h.6l.26-1.86c0-.79-.69-.81-.92-.81Zm-.34 2.16c-.2 0-.26-.16-.26-.26 0-.18.1-.4.6-.4l.14.01c.01.11-.07.65-.48.65Zm5.2.22a.18.18 0 0 0-.07-.08.2.2 0 0 0-.3.18c0 .04 0 .07.02.1a.2.2 0 0 0 .08.08.2.2 0 0 0 .28-.08.2.2 0 0 0 0-.2Zm-.02.18a.17.17 0 0 1-.15.1.17.17 0 0 1-.17-.18c0-.03 0-.06.02-.09a.17.17 0 0 1 .3.17Z" fill="#ECEBEB"/><path d="M22.28 9.49a.28.28 0 0 0-.04-.04.05.05 0 0 0-.01-.02.07.07 0 0 0 .04-.02.06.06 0 0 0 0-.07.06.06 0 0 0-.02-.02.17.17 0 0 0-.05 0h-.08v.21h.03v-.09h.05a.22.22 0 0 1 .04.06l.02.03h.04l-.02-.04Zm-.08-.08h-.04v-.07h.04a.13.13 0 0 1 .03 0l.02.02v.04h-.05Zm-2.4-2.44c-.3 0-.52.41-.52.41l.06-.38h-.63l-.42 2.62h.7c.2-1.12.23-2.02.7-1.86.08-.43.16-.6.25-.78l-.13-.01Zm1.75-.56-.15.9s-.25-.35-.65-.35c-.62 0-1.13.74-1.13 1.6 0 .55.27 1.1.83 1.1a.84.84 0 0 0 .63-.29l-.03.24h.66l.51-3.2h-.67ZM20.69 9c-.24 0-.36-.2-.36-.53 0-.52.24-.87.54-.87.24 0 .36.17.36.56 0 .36-.17.84-.54.84Z" fill="#ECEBEB"/><path d="M24.05 0H.64A.64.64 0 0 0 0 .64v14.72c0 .35.28.64.64.64h23.41a.64.64 0 0 0 .64-.64V.64a.64.64 0 0 0-.64-.64Zm-1.58 11.62a.19.19 0 0 1-.07.08.2.2 0 0 1-.2 0 .2.2 0 0 1 .2-.36.19.19 0 0 1 .07.08.2.2 0 0 1 0 .2ZM22.93 8a6.34 6.34 0 0 1-10.59 4.7 6.31 6.31 0 0 1-4.24 1.64A6.34 6.34 0 0 1 1.76 8a6.34 6.34 0 0 1 6.3-6.34h.03c1.64 0 3.13.62 4.25 1.64A6.34 6.34 0 0 1 22.94 8Z" fill="#ECEBEB"/><path d="M11.7 12c.2.25.4.49.64.7l.02-.01c.23-.21.45-.44.64-.68h-1.3Zm.86-3.47s.09-.44.09-.62c0-.44-.22-.98-.97-.98-.67 0-1.18.73-1.18 1.55 0 .96.63 1.18 1.17 1.18.5 0 .71-.1.71-.1l.12-.66s-.38.17-.72.17c-.72 0-.6-.54-.6-.54h1.38Zm-.87-1c.38 0 .3.43.3.46h-.74c0-.04.07-.46.44-.46Zm4.03-.51c.34 0 .62.19.62.19l.11-.72s-.4-.16-.76-.16c-.78 0-1.54.67-1.54 1.94 0 .84.41 1.4 1.22 1.4.23 0 .59-.1.59-.1l.12-.73s-.33.17-.56.17c-.48 0-.67-.37-.67-.76 0-.8.41-1.23.87-1.23Zm-4.87 3.66c.1.23.24.46.37.67h2.25c.14-.21.26-.44.37-.67h-3Zm3.3-3.7c-.31 0-.53.4-.53.4l.06-.38h-.63l-.42 2.62h.69c.2-1.12.23-2.02.7-1.86.08-.43.16-.6.25-.78h-.13Z" fill="#ECEBEB"/></svg>
